;FLAVOR:Marlin
;TIME:2129
;Filament used: 7.96971m
;Layer height: 0.2
;MINX:38.786
;MINY:17.155
;MINZ:0.25
;MAXX:166.945
;MAXY:202.845
;MAXZ:1.65
;Generated with Cura_SteamEngine 5.4.0
M140 S60
M105
M190 S60
M104 S230
M105
M109 S230
M82 ;absolute extrusion mode
G28 ;Home
G1 Z15.0 F6000 ;Move the platform down 15mm
;Prime the extruder
G92 E0
G1 F200 E3
G92 E0
G92 E0
G92 E0
G1 F2400 E-6
;LAYER_COUNT:8
;LAYER:0
M107
G0 F4800 X74.989 Y22.197 Z0.25
;TYPE:SKIRT
G1 F2400 E0
G1 F4800 X75.767 Y20.576 E0.14128
G1 X76.713 Y19.344 E0.26334
G1 X77.568 Y18.646 E0.35007
G1 X78.835 Y17.821 E0.46887
G1 X80.167 Y17.378 E0.57917
G1 X81.509 Y17.155 E0.68607
G1 X138.561 Y17.185 E5.16905
G1 X139.729 Y17.338 E5.26161
G1 X140.487 Y17.563 E5.32374
G1 X141.889 Y18.233 E5.44584
G1 X143.124 Y19.181 E5.56817
G1 X143.82 Y20.033 E5.65462
G1 X144.647 Y21.302 E5.77364
G1 X145.091 Y22.636 E5.88411
G1 X145.314 Y23.978 E5.99101
G1 X145.314 Y51.607 E8.16202
G1 X145.192 Y52.406 E8.22553
G1 X145.314 Y53.018 E8.27456
G1 X145.314 Y74.69 E9.97749
G1 X160.299 Y74.728 E11.15497
G1 X161.581 Y74.903 E11.25664
G1 X161.903 Y74.989 E11.28282
G1 X163.524 Y75.767 E11.42411
G1 X164.756 Y76.713 E11.54616
G1 X165.454 Y77.568 E11.63289
G1 X166.279 Y78.835 E11.75169
G1 X166.722 Y80.167 E11.862
G1 X166.945 Y81.509 E11.96889
G1 X166.903 Y138.668 E16.46028
G1 X166.728 Y139.95 E16.56195
G1 X166.642 Y140.272 E16.58814
G1 X165.864 Y141.893 E16.72942
G1 X164.918 Y143.125 E16.85148
G1 X164.063 Y143.823 E16.9382
G1 X162.796 Y144.648 E17.05701
G1 X161.464 Y145.091 E17.16731
G1 X160.122 Y145.314 E17.2742
G1 X145.314 Y145.314 E18.43777
G1 X145.314 Y166.807 E20.12663
G1 X145.192 Y167.606 E20.19014
G1 X145.314 Y168.22 E20.23933
G1 X145.272 Y196.199 E22.43784
G1 X145.097 Y197.481 E22.53951
G1 X145.011 Y197.803 E22.5657
G1 X144.233 Y199.424 E22.70698
G1 X143.287 Y200.656 E22.82904
G1 X142.432 Y201.354 E22.91577
G1 X141.165 Y202.179 E23.03457
G1 X139.833 Y202.622 E23.14487
G1 X138.491 Y202.845 E23.25177
G1 X81.332 Y202.803 E27.74315
G1 X80.05 Y202.628 E27.84482
G1 X79.728 Y202.542 E27.87101
G1 X78.107 Y201.764 E28.0123
G1 X76.875 Y200.818 E28.13435
G1 X76.177 Y199.963 E28.22108
G1 X75.352 Y198.696 E28.33988
G1 X74.909 Y197.364 E28.45018
G1 X74.686 Y196.022 E28.55708
G1 X74.688 Y145.243 E32.54714
G1 X45.432 Y145.203 E34.846
G1 X44.15 Y145.028 E34.94767
G1 X43.828 Y144.942 E34.97386
G1 X42.207 Y144.164 E35.11514
G1 X40.975 Y143.218 E35.23719
G1 X40.277 Y142.363 E35.32392
G1 X39.452 Y141.096 E35.44272
G1 X39.009 Y139.764 E35.55303
G1 X38.786 Y138.422 E35.65992
G1 X38.828 Y81.401 E40.14047
G1 X39.003 Y80.119 E40.24214
G1 X39.089 Y79.797 E40.26833
G1 X39.867 Y78.176 E40.40961
G1 X40.813 Y76.944 E40.53166
G1 X41.668 Y76.246 E40.61839
G1 X42.935 Y75.421 E40.73719
G1 X44.267 Y74.978 E40.8475
G1 X45.609 Y74.755 E40.95439
G1 X74.689 Y74.755 E43.23941
G1 X74.728 Y23.801 E47.24323
G1 X74.903 Y22.519 E47.3449
G1 X74.989 Y22.197 E47.37109
G0 X75.583 Y22.416
G1 X76.305 Y20.911 E47.50225
G1 X77.169 Y19.786 E47.61371
G1 X77.967 Y19.134 E47.69469
G1 X79.11 Y18.394 E47.80168
G1 X80.324 Y17.99 E47.90221
G1 X81.558 Y17.785 E48.00051
G1 X138.479 Y17.81 E52.47319
G1 X139.6 Y17.957 E52.56203
G1 X140.261 Y18.153 E52.61621
G1 X141.555 Y18.771 E52.72889
G1 X142.683 Y19.638 E52.84068
G1 X143.292 Y20.377 E52.91592
G1 X144.075 Y21.578 E53.02858
G1 X144.479 Y22.793 E53.12919
G1 X144.684 Y24.027 E53.22748
G1 X144.684 Y51.558 E55.39079
G1 X144.552 Y52.42 E55.45931
G1 X144.684 Y53.081 E55.51228
G1 X144.684 Y75.319 E57.25967
G1 X160.214 Y75.352 E58.47998
G1 X161.496 Y75.527 E58.58165
G1 X161.684 Y75.583 E58.59706
G1 X163.189 Y76.305 E58.72822
G1 X164.314 Y77.169 E58.83969
G1 X164.966 Y77.967 E58.92066
G1 X165.706 Y79.11 E59.02765
G1 X166.11 Y80.324 E59.12819
G1 X166.315 Y81.558 E59.22648
G1 X166.279 Y138.583 E63.70734
G1 X166.104 Y139.865 E63.80901
G1 X166.048 Y140.053 E63.82442
G1 X165.326 Y141.558 E63.95559
G1 X164.462 Y142.683 E64.06705
G1 X163.664 Y143.335 E64.14802
G1 X162.521 Y144.075 E64.25501
G1 X161.307 Y144.479 E64.35555
G1 X160.073 Y144.684 E64.45384
G1 X144.684 Y144.684 E65.66306
G1 X144.684 Y166.758 E67.39757
G1 X144.552 Y167.62 E67.4661
G1 X144.684 Y168.282 E67.51914
G1 X144.648 Y196.114 E69.7061
G1 X144.473 Y197.396 E69.80777
G1 X144.417 Y197.584 E69.82318
G1 X143.695 Y199.089 E69.95435
G1 X142.831 Y200.214 E70.06581
G1 X142.033 Y200.866 E70.14678
G1 X140.89 Y201.606 E70.25377
G1 X139.676 Y202.01 E70.35431
G1 X138.442 Y202.215 E70.4526
G1 X81.417 Y202.179 E74.93346
G1 X80.135 Y202.004 E75.03513
G1 X79.947 Y201.948 E75.05054
G1 X78.442 Y201.226 E75.18171
G1 X77.317 Y200.362 E75.29317
G1 X76.665 Y199.564 E75.37414
G1 X75.925 Y198.421 E75.48113
G1 X75.521 Y197.207 E75.58167
G1 X75.316 Y195.973 E75.67996
G1 X75.318 Y144.614 E79.7156
G1 X45.517 Y144.579 E82.05728
G1 X44.235 Y144.404 E82.15895
G1 X44.047 Y144.348 E82.17436
G1 X42.542 Y143.626 E82.30553
G1 X41.417 Y142.762 E82.41699
G1 X40.765 Y141.964 E82.49796
G1 X40.025 Y140.821 E82.60495
G1 X39.621 Y139.607 E82.70549
G1 X39.416 Y138.373 E82.80378
G1 X39.452 Y81.486 E87.2738
G1 X39.627 Y80.204 E87.37547
G1 X39.683 Y80.016 E87.39088
G1 X40.405 Y78.511 E87.52204
G1 X41.269 Y77.386 E87.6335
G1 X42.067 Y76.734 E87.71448
G1 X43.21 Y75.994 E87.82147
G1 X44.424 Y75.59 E87.92201
G1 X45.658 Y75.385 E88.0203
G1 X75.319 Y75.385 E90.35097
G1 X75.352 Y23.886 E94.39761
G1 X75.527 Y22.604 E94.49928
G1 X75.583 Y22.416 E94.5147
G0 X76.151 Y22.689
G1 X76.846 Y21.241 E94.64091
G1 X77.623 Y20.228 E94.74122
G1 X78.309 Y19.663 E94.81106
G1 X79.384 Y18.967 E94.91169
G1 X80.481 Y18.602 E95.00253
G1 X81.607 Y18.415 E95.09222
G1 X138.397 Y18.435 E99.55461
G1 X139.471 Y18.576 E99.63973
G1 X140.038 Y18.744 E99.6862
G1 X141.219 Y19.308 E99.78903
G1 X142.243 Y20.095 E99.89052
G1 X142.806 Y20.778 E99.96007
G1 X143.502 Y21.853 E100.0607
G1 X143.867 Y22.95 E100.15154
G1 X144.054 Y24.076 E100.24123
G1 X144.054 Y51.509 E102.39684
G1 X143.912 Y52.435 E102.47045
G1 X144.054 Y53.145 E102.52734
G1 X144.054 Y75.948 E104.31914
G1 X160.129 Y75.976 E105.58226
G1 X161.411 Y76.151 E105.68393
G1 X162.859 Y76.846 E105.81014
G1 X163.872 Y77.623 E105.91046
G1 X164.437 Y78.309 E105.98029
G1 X165.133 Y79.384 E106.08092
G1 X165.498 Y80.481 E106.17177
G1 X165.685 Y81.607 E106.26145
G1 X165.655 Y138.498 E110.73178
G1 X165.48 Y139.78 E110.83345
G1 X164.785 Y141.228 E110.95966
G1 X164.008 Y142.241 E111.05998
G1 X163.322 Y142.806 E111.12981
G1 X162.247 Y143.502 E111.23044
G1 X161.15 Y143.867 E111.32128
G1 X160.024 Y144.054 E111.41097
G1 X144.054 Y144.054 E112.66585
G1 X144.054 Y166.709 E114.44601
G1 X143.912 Y167.635 E114.51963
G1 X144.054 Y168.345 E114.57652
G1 X144.024 Y196.029 E116.75185
G1 X143.849 Y197.311 E116.85352
G1 X143.154 Y198.759 E116.97973
G1 X142.377 Y199.772 E117.08004
G1 X141.691 Y200.337 E117.14988
G1 X140.616 Y201.033 E117.25051
G1 X139.519 Y201.398 E117.34135
G1 X138.393 Y201.585 E117.43104
G1 X81.502 Y201.555 E121.90137
G1 X80.22 Y201.38 E122.00304
G1 X78.772 Y200.685 E122.12925
G1 X77.759 Y199.908 E122.22956
G1 X77.194 Y199.222 E122.2994
G1 X76.498 Y198.147 E122.40003
G1 X76.133 Y197.05 E122.49087
G1 X75.946 Y195.924 E122.58056
G1 X75.948 Y143.985 E126.66178
G1 X45.602 Y143.955 E129.04628
G1 X44.32 Y143.78 E129.14795
G1 X42.872 Y143.085 E129.27415
G1 X41.859 Y142.308 E129.37447
G1 X41.294 Y141.622 E129.4443
G1 X40.598 Y140.547 E129.54493
G1 X40.233 Y139.45 E129.63578
G1 X40.046 Y138.324 E129.72547
G1 X40.076 Y81.571 E134.18495
G1 X40.251 Y80.289 E134.28662
G1 X40.946 Y78.841 E134.41283
G1 X41.723 Y77.828 E134.51315
G1 X42.409 Y77.263 E134.58298
G1 X43.484 Y76.567 E134.68361
G1 X44.581 Y76.202 E134.77445
G1 X45.707 Y76.015 E134.86414
G1 X75.949 Y76.015 E137.24047
G1 X75.976 Y23.971 E141.32994
G1 X76.151 Y22.689 E141.43161
G0 X76.762 Y22.872
G1 X77.384 Y21.575 E141.54463
G1 X78.081 Y20.667 E141.63458
G1 X78.651 Y20.192 E141.69288
G1 X79.658 Y19.54 E141.78715
G1 X80.638 Y19.214 E141.8683
G1 X81.656 Y19.045 E141.94939
G1 X138.315 Y19.06 E146.40148
G1 X139.389 Y19.201 E146.4866
G1 X139.767 Y19.313 E146.51758
G1 X140.89 Y19.849 E146.61536
G1 X141.802 Y20.55 E146.70574
G1 X142.277 Y21.12 E146.76405
G1 X142.929 Y22.127 E146.85831
G1 X143.255 Y23.107 E146.93946
G1 X143.424 Y24.125 E147.02055
G1 X143.424 Y51.459 E149.16838
G1 X143.272 Y52.449 E149.24708
G1 X143.424 Y53.209 E149.30798
G1 X143.424 Y76.577 E151.14417
G1 X160.044 Y76.6 E152.45012
G1 X161.228 Y76.762 E152.54402
G1 X162.525 Y77.384 E152.65705
G1 X163.433 Y78.081 E152.747
G1 X163.908 Y78.651 E152.8053
G1 X164.56 Y79.658 E152.89956
G1 X164.886 Y80.638 E152.98072
G1 X165.055 Y81.656 E153.0618
G1 X165.031 Y138.413 E157.5216
G1 X164.869 Y139.597 E157.6155
G1 X164.247 Y140.894 E157.72853
G1 X163.55 Y141.802 E157.81848
G1 X162.98 Y142.277 E157.87678
G1 X161.973 Y142.929 E157.97104
G1 X160.993 Y143.255 E158.0522
G1 X159.975 Y143.424 E158.13329
G1 X143.424 Y143.424 E159.43381
G1 X143.424 Y166.659 E161.25955
G1 X143.272 Y167.649 E161.33826
G1 X143.424 Y168.409 E161.39916
G1 X143.4 Y195.944 E163.56278
G1 X143.238 Y197.128 E163.65668
G1 X142.616 Y198.425 E163.76971
G1 X141.919 Y199.333 E163.85965
G1 X141.349 Y199.808 E163.91795
G1 X140.342 Y200.46 E164.01222
G1 X139.362 Y200.786 E164.09337
G1 X138.344 Y200.955 E164.17446
G1 X81.587 Y200.931 E168.63426
G1 X80.403 Y200.769 E168.72816
G1 X79.106 Y200.147 E168.84119
G1 X78.198 Y199.45 E168.93113
G1 X77.723 Y198.88 E168.98944
G1 X77.071 Y197.873 E169.0837
G1 X76.745 Y196.893 E169.16485
G1 X76.576 Y195.875 E169.24594
G1 X76.578 Y143.355 E173.37281
G1 X45.687 Y143.331 E175.80013
G1 X44.503 Y143.169 E175.89404
G1 X43.206 Y142.547 E176.00706
G1 X42.298 Y141.85 E176.09701
G1 X41.823 Y141.28 E176.15531
G1 X41.171 Y140.273 E176.24958
G1 X40.845 Y139.293 E176.33073
G1 X40.676 Y138.275 E176.41182
G1 X40.7 Y81.656 E180.86077
G1 X40.862 Y80.472 E180.95467
G1 X41.484 Y79.175 E181.0677
G1 X42.181 Y78.267 E181.15765
G1 X42.751 Y77.792 E181.21595
G1 X43.758 Y77.14 E181.31021
G1 X44.738 Y76.814 E181.39137
G1 X45.756 Y76.645 E181.47245
G1 X76.579 Y76.645 E183.89444
G1 X76.6 Y24.056 E188.02673
G1 X76.762 Y22.872 E188.12063
G0 X77.373 Y23.055
G1 X77.922 Y21.909 E188.22048
G1 X78.539 Y21.105 E188.30011
G1 X78.993 Y20.721 E188.34683
G1 X79.932 Y20.113 E188.43473
G1 X80.789 Y19.828 E188.5057
G1 X81.711 Y19.675 E188.57914
G1 X138.233 Y19.685 E193.02047
G1 X139.307 Y19.826 E193.10559
G1 X139.496 Y19.882 E193.12108
G1 X140.558 Y20.389 E193.21355
G1 X141.364 Y21.008 E193.2934
G1 X141.748 Y21.462 E193.34013
G1 X142.356 Y22.401 E193.42803
G1 X142.641 Y23.258 E193.499
G1 X142.794 Y24.18 E193.57243
G1 X142.794 Y51.409 E195.71201
G1 X142.667 Y52.237 E195.77783
G1 X142.621 Y52.406 E195.79159
G1 X142.794 Y53.272 E195.86099
G1 X142.794 Y77.206 E197.74165
G1 X159.958 Y77.224 E199.09035
G1 X161.045 Y77.373 E199.17656
G1 X162.191 Y77.922 E199.27641
G1 X162.995 Y78.539 E199.35604
G1 X163.379 Y78.993 E199.40277
G1 X163.987 Y79.932 E199.49067
G1 X164.272 Y80.789 E199.56163
G1 X164.425 Y81.711 E199.63507
G1 X164.407 Y138.327 E204.08379
G1 X164.258 Y139.414 E204.17
G1 X163.709 Y140.56 E204.26985
G1 X163.092 Y141.364 E204.34949
G1 X162.638 Y141.748 E204.39621
G1 X161.699 Y142.356 E204.48411
G1 X160.842 Y142.641 E204.55508
G1 X159.92 Y142.794 E204.62852
G1 X142.794 Y142.794 E205.97423
G1 X142.794 Y166.609 E207.84554
G1 X142.667 Y167.437 E207.91136
G1 X142.621 Y167.606 E207.92513
G1 X142.794 Y168.472 E207.99452
G1 X142.776 Y195.858 E210.14643
G1 X142.627 Y196.945 E210.23264
G1 X142.078 Y198.091 E210.33249
G1 X141.461 Y198.895 E210.41213
G1 X141.007 Y199.279 E210.45885
G1 X140.068 Y199.887 E210.54675
G1 X139.211 Y200.172 E210.61772
G1 X138.289 Y200.325 E210.69116
G1 X81.673 Y200.307 E215.13988
G1 X80.586 Y200.158 E215.22609
G1 X79.44 Y199.609 E215.32594
G1 X78.636 Y198.992 E215.40557
G1 X78.252 Y198.538 E215.4523
G1 X77.644 Y197.599 E215.5402
G1 X77.359 Y196.742 E215.61116
G1 X77.206 Y195.82 E215.6846
G1 X77.208 Y142.725 E219.85665
G1 X45.773 Y142.707 E222.32672
G1 X44.686 Y142.558 E222.41293
G1 X43.54 Y142.009 E222.51278
G1 X42.736 Y141.392 E222.59242
G1 X42.352 Y140.938 E222.63914
G1 X41.744 Y139.999 E222.72704
G1 X41.459 Y139.142 E222.79801
G1 X41.306 Y138.22 E222.87145
G1 X41.324 Y81.742 E227.30932
G1 X41.473 Y80.655 E227.39553
G1 X42.022 Y79.509 E227.49538
G1 X42.639 Y78.705 E227.57502
G1 X43.093 Y78.321 E227.62174
G1 X44.032 Y77.713 E227.70964
G1 X44.889 Y77.428 E227.78061
G1 X45.811 Y77.275 E227.85405
G1 X77.209 Y77.275 E230.32121
G1 X77.224 Y24.142 E234.49625
G1 X77.373 Y23.055 E234.58246
G0 X77.984 Y23.238
G1 X78.46 Y22.243 E234.66913
G1 X78.999 Y21.541 E234.73867
G1 X79.4 Y21.202 E234.77993
G1 X80.205 Y20.686 E234.85507
G1 X80.939 Y20.442 E234.91585
G1 X81.766 Y20.305 E234.98172
G1 X138.151 Y20.31 E239.41228
G1 X139.225 Y20.451 E239.4974
G1 X140.226 Y20.929 E239.58456
G1 X140.928 Y21.468 E239.65411
G1 X141.267 Y21.869 E239.69537
G1 X141.783 Y22.674 E239.7705
G1 X142.027 Y23.408 E239.83128
G1 X142.164 Y24.235 E239.89715
G1 X142.164 Y51.359 E242.02847
G1 X142.044 Y52.141 E242.09064
G1 X141.963 Y52.399 E242.11189
G1 X142.004 Y52.532 E242.12283
G1 X142.164 Y53.335 E242.18716
G1 X142.164 Y77.836 E244.11238
G1 X159.872 Y77.848 E245.50382
G1 X160.862 Y77.984 E245.58234
G1 X161.857 Y78.46 E245.66901
G1 X162.559 Y78.999 E245.73856
G1 X162.898 Y79.4 E245.77982
G1 X163.414 Y80.205 E245.85495
G1 X163.658 Y80.939 E245.91573
G1 X163.795 Y81.766 E245.9816
G1 X163.783 Y138.241 E250.41924
G1 X163.647 Y139.231 E250.49776
G1 X163.171 Y140.226 E250.58443
G1 X162.632 Y140.928 E250.65398
G1 X162.231 Y141.267 E250.69524
G1 X161.426 Y141.783 E250.77037
G1 X160.692 Y142.027 E250.83115
G1 X159.865 Y142.164 E250.89702
G1 X142.164 Y142.164 E252.28791
G1 X142.164 Y166.559 E254.2048
G1 X142.044 Y167.341 E254.26697
G1 X141.963 Y167.599 E254.28822
G1 X142.004 Y167.732 E254.29915
G1 X142.164 Y168.535 E254.36349
G1 X142.152 Y195.772 E256.50369
G1 X142.016 Y196.762 E256.58222
G1 X141.54 Y197.757 E256.66889
G1 X141.001 Y198.459 E256.73843
G1 X140.6 Y198.798 E256.77969
G1 X139.795 Y199.314 E256.85483
G1 X139.061 Y199.558 E256.9156
G1 X138.234 Y199.695 E256.98147
G1 X81.759 Y199.683 E261.41911
G1 X80.769 Y199.547 E261.49763
G1 X79.774 Y199.071 E261.58431
G1 X79.072 Y198.532 E261.65385
G1 X78.733 Y198.131 E261.69511
G1 X78.217 Y197.326 E261.77024
G1 X77.973 Y196.592 E261.83102
G1 X77.836 Y195.765 E261.89689
G1 X77.838 Y142.095 E266.11412
G1 X45.859 Y142.083 E268.62694
G1 X44.869 Y141.947 E268.70546
G1 X43.874 Y141.471 E268.79213
G1 X43.172 Y140.932 E268.86168
G1 X42.833 Y140.531 E268.90294
G1 X42.317 Y139.726 E268.97807
G1 X42.073 Y138.992 E269.03885
G1 X41.936 Y138.165 E269.10472
G1 X41.948 Y81.828 E273.53151
G1 X42.084 Y80.838 E273.61004
G1 X42.56 Y79.843 E273.69671
G1 X43.099 Y79.141 E273.76625
G1 X43.5 Y78.802 E273.80751
G1 X44.305 Y78.286 E273.88265
G1 X45.039 Y78.042 E273.94343
G1 X45.866 Y77.905 E274.00929
G1 X77.839 Y77.905 E276.52164
G1 X77.848 Y24.228 E280.73942
G1 X77.984 Y23.238 E280.81794
G0 X78.595 Y23.421
G1 X79 Y22.574 E280.89171
G1 X79.458 Y21.977 E280.95084
G1 X79.74 Y21.733 E280.98014
G1 X80.48 Y21.259 E281.04919
G1 X81.09 Y21.056 E281.09971
G1 X81.821 Y20.935 E281.15793
G1 X138.069 Y20.935 E285.57773
G1 X139.046 Y21.063 E285.65516
G1 X139.895 Y21.469 E285.72911
G1 X140.492 Y21.927 E285.78823
G1 X140.736 Y22.209 E285.81753
G1 X141.21 Y22.949 E285.88659
G1 X141.413 Y23.559 E285.9371
G1 X141.534 Y24.29 E285.99533
G1 X141.534 Y51.309 E288.1184
G1 X141.421 Y52.045 E288.17691
G1 X141.291 Y52.401 E288.20669
G1 X141.386 Y52.655 E288.228
G1 X141.534 Y53.398 E288.28753
G1 X141.534 Y78.466 E290.2573
G1 X159.786 Y78.472 E291.69149
G1 X160.679 Y78.595 E291.76232
G1 X161.526 Y79 E291.83609
G1 X162.123 Y79.458 E291.89522
G1 X162.367 Y79.74 E291.92452
G1 X162.841 Y80.48 E291.99357
G1 X163.044 Y81.09 E292.04409
G1 X163.165 Y81.821 E292.10231
G1 X163.159 Y138.155 E296.52887
G1 X163.036 Y139.048 E296.5997
G1 X162.631 Y139.895 E296.67347
G1 X162.173 Y140.492 E296.7326
G1 X161.891 Y140.736 E296.7619
G1 X161.151 Y141.21 E296.83095
G1 X160.541 Y141.413 E296.88147
G1 X159.81 Y141.534 E296.93969
G1 X141.534 Y141.534 E298.37577
G1 X141.534 Y166.509 E300.33823
