;FLAVOR:Marlin
;TIME:2234
;Filament used: 2.76449m
;Layer height: 0.2
;MINX:73.3
;MINY:73.3
;MINZ:0.3
;MAXX:146.7
;MAXY:146.7
;MAXZ:2.9
;Generated with Cura_SteamEngine 5.4.0
M140 S70
M105
M190 S70
M104 S210
M105
M109 S210
M82 ;absolute extrusion mode
G28 ;Home
G1 Z15.0 F6000 ;Move the platform down 15mm
;Prime the extruder
G92 E0
G1 F200 E3
G92 E0
G92 E0
G92 E0
G1 F1500 E-6.5
;LAYER_COUNT:14
;LAYER:0
M107
G0 F3600 X74.289 Y74.204 Z0.3
;TYPE:SKIRT
G1 F1500 E0
G1 F1800 X74.68 Y73.883 E0.02524
G1 X75.117 Y73.628 E0.05048
G1 X75.588 Y73.444 E0.07571
G1 X76.082 Y73.338 E0.10092
G1 X76.527 Y73.301 E0.12319
G1 X142.839 Y73.3 E3.43151
G1 X143.537 Y73.31 E3.46634
G1 X144.04 Y73.357 E3.49154
G1 X144.53 Y73.483 E3.51679
G1 X144.994 Y73.685 E3.54203
G1 X145.42 Y73.957 E3.56725
G1 X145.798 Y74.292 E3.59245
G1 X146.118 Y74.683 E3.61765
G1 X146.373 Y75.12 E3.6429
G1 X146.556 Y75.591 E3.66811
G1 X146.663 Y76.085 E3.69332
G1 X146.699 Y76.74 E3.72605
G1 X146.7 Y142.804 E7.022
G1 X146.691 Y143.531 E7.05827
G1 X146.645 Y144.034 E7.08347
G1 X146.52 Y144.524 E7.1087
G1 X146.319 Y144.988 E7.13393
G1 X146.048 Y145.415 E7.15916
G1 X145.713 Y145.794 E7.18439
G1 X145.323 Y146.115 E7.20959
G1 X144.887 Y146.371 E7.23482
G1 X144.416 Y146.554 E7.26003
G1 X143.922 Y146.662 E7.28526
G1 X143.26 Y146.699 E7.31834
G1 X77.166 Y146.7 E10.61578
G1 X76.468 Y146.691 E10.6506
G1 X75.964 Y146.644 E10.67586
G1 X75.474 Y146.519 E10.70109
G1 X75.01 Y146.318 E10.72632
G1 X74.584 Y146.047 E10.7515
G1 X74.205 Y145.712 E10.77674
G1 X73.884 Y145.321 E10.80198
G1 X73.629 Y144.885 E10.82718
G1 X73.445 Y144.414 E10.85241
G1 X73.338 Y143.92 E10.87762
G1 X73.301 Y143.467 E10.9003
G1 X73.3 Y77.131 E14.20982
G1 X73.309 Y76.466 E14.243
G1 X73.356 Y75.962 E14.26825
G1 X73.482 Y75.473 E14.29344
G1 X73.683 Y75.009 E14.31867
G1 X73.954 Y74.582 E14.3439
G1 X74.289 Y74.204 E14.3691
G1 F1500 E7.8691
;MESH:Lid.stl
G0 F3600 X76.914 Y75.835
G0 X76.914 Y76.914
G0 X87.275 Y89.739
G0 X88.445 Y90.709
G0 X88.503 Y90.416
;TYPE:WALL-INNER
G1 F1500 E14.3691
G1 F1800 X87.782 Y90.269 E14.40581
G1 X87.164 Y89.852 E14.44301
G1 X86.751 Y89.249 E14.47947
G1 X86.602 Y88.5 E14.51757
G1 X86.75 Y87.752 E14.55561
G1 X87.161 Y87.148 E14.59206
G1 X87.765 Y86.738 E14.62848
G1 X88.497 Y86.585 E14.66579
G1 X89.264 Y86.737 E14.7048
G1 X89.88 Y87.161 E14.74211
G1 X90.288 Y87.776 E14.77893
G1 X90.43 Y88.505 E14.81598
G1 X90.303 Y89.145 E14.84853
G1 X90.233 Y89.312 E14.85757
G1 X89.869 Y89.853 E14.8901
G1 X89.327 Y90.219 E14.92273
G1 X89.151 Y90.291 E14.93221
G1 X88.503 Y90.416 E14.96514
G0 F3600 X88.445 Y90.709
G0 X108.201 Y111.799
G0 X108.942 Y112.304
G0 X109.939 Y112.597
G0 X109.97 Y112.299
G1 F1800 X109.572 Y112.26 E14.98509
G1 X109.15 Y112.139 E15.00699
G1 X108.751 Y111.932 E15.02942
G1 X108.373 Y111.627 E15.05365
G1 X108.095 Y111.29 E15.07545
G1 X107.861 Y110.85 E15.10031
G1 X107.746 Y110.46 E15.12059
G1 X107.701 Y109.97 E15.14514
G1 X107.74 Y109.572 E15.16509
G1 X107.861 Y109.15 E15.187
G1 X108.069 Y108.751 E15.20944
G1 X108.373 Y108.373 E15.23365
G1 X108.711 Y108.094 E15.25551
G1 X109.15 Y107.861 E15.28031
G1 X109.54 Y107.746 E15.30059
G1 X110.03 Y107.701 E15.32514
G1 X110.428 Y107.74 E15.34509
G1 X110.906 Y107.884 E15.37
G1 X111.249 Y108.068 E15.38942
G1 X111.627 Y108.373 E15.41365
G1 X111.905 Y108.71 E15.43544
G1 X112.139 Y109.15 E15.46031
G1 X112.26 Y109.572 E15.48221
G1 X112.3 Y110 E15.50366
G1 X112.258 Y110.44 E15.52571
G1 X112.139 Y110.85 E15.54701
G1 X111.931 Y111.249 E15.56946
G1 X111.627 Y111.627 E15.59366
G1 X111.289 Y111.906 E15.61552
G1 X110.85 Y112.139 E15.64032
G1 X110.46 Y112.254 E15.6606
G1 X109.97 Y112.299 E15.68515
G0 F3600 X109.939 Y112.597
G0 X90.042 Y133.027
G0 X88.587 Y133.709
G0 X88.53 Y133.415
G1 F1800 X87.766 Y133.263 E15.72401
G1 X87.16 Y132.851 E15.76057
G1 X86.748 Y132.233 E15.79763
G1 X86.602 Y131.5 E15.83492
G1 X86.751 Y130.751 E15.87302
G1 X87.172 Y130.135 E15.91024
G1 X87.791 Y129.726 E15.94726
G1 X88.51 Y129.586 E15.9838
G1 X89.245 Y129.728 E16.02115
G1 X89.857 Y130.139 E16.05793
G1 X90.278 Y130.754 E16.09511
G1 X90.43 Y131.509 E16.13353
G1 X90.283 Y132.232 E16.17034
G1 X89.867 Y132.849 E16.20747
G1 X89.25 Y133.266 E16.24462
G1 X88.53 Y133.415 E16.2813
G0 F3600 X88.587 Y133.709
G0 X131.56 Y133.708
G0 X131.503 Y133.415
G1 F1800 X130.736 Y133.263 E16.32031
G1 X130.12 Y132.839 E16.35762
G1 X129.712 Y132.224 E16.39444
G1 X129.57 Y131.495 E16.43149
G1 X129.697 Y130.855 E16.46405
G1 X129.767 Y130.688 E16.47308
G1 X130.124 Y130.157 E16.505
G1 X130.744 Y129.732 E16.5425
G1 X131.469 Y129.586 E16.5794
G1 X132.217 Y129.73 E16.6174
G1 X132.836 Y130.148 E16.65467
G1 X133.249 Y130.75 E16.69109
G1 X133.383 Y131.396 E16.72401
G1 X133.383 Y131.604 E16.73438
G1 X133.248 Y132.249 E16.76726
G1 X132.839 Y132.852 E16.80361
G1 X132.235 Y133.262 E16.84003
G1 X131.503 Y133.415 E16.87734
G0 F3600 X131.56 Y133.708
G0 X142.63 Y142.63
G0 X142.9 Y142.9
G1 F1800 X142.9 Y77.1 E20.16011
G1 X77.1 Y77.1 E23.44289
G1 X77.1 Y142.9 E26.72567
G1 X142.9 Y142.9 E30.00844
G0 F3600 X142.63 Y142.63
G0 X131.548 Y90.711
G0 X131.49 Y90.414
G1 F1800 X130.755 Y90.272 E30.04579
G1 X130.145 Y89.864 E30.0824
G1 X129.722 Y89.246 E30.11976
G1 X129.57 Y88.491 E30.15819
G1 X129.717 Y87.768 E30.195
G1 X130.133 Y87.151 E30.23212
G1 X130.75 Y86.734 E30.26927
G1 X131.47 Y86.585 E30.30596
G1 X132.234 Y86.737 E30.34482
G1 X132.84 Y87.149 E30.38138
G1 X133.252 Y87.767 E30.41843
G1 X133.383 Y88.396 E30.45049
G1 X133.383 Y88.604 E30.46087
G1 X133.248 Y89.25 E30.49379
G1 X132.828 Y89.864 E30.5309
G1 X132.221 Y90.271 E30.56737
G1 X131.49 Y90.414 E30.60453
G0 F3600 X131.487 Y90.009
;TYPE:WALL-OUTER
G1 F1800 X130.907 Y89.894 E30.63403
G1 X130.421 Y89.568 E30.66322
G1 X130.091 Y89.077 E30.69274
G1 X129.976 Y88.5 E30.72209
G1 X130.09 Y87.925 E30.75133
G1 X130.43 Y87.428 E30.78138
G1 X130.921 Y87.104 E30.81073
G1 X131.48 Y86.991 E30.83918
G1 X132.068 Y87.108 E30.86909
G1 X132.555 Y87.436 E30.89838
G1 X132.882 Y87.935 E30.92815
G1 X132.992 Y88.5 E30.95686
G1 X132.878 Y89.082 E30.98645
G1 X132.558 Y89.556 E31.01498
G1 X132.061 Y89.896 E31.04503
G1 X131.487 Y90.009 E31.07421
G0 F3600 X131.291 Y89.971
G0 X131.155 Y90.657
G0 X111.799 Y111.799
G0 X110.974 Y112.35
G0 X109.91 Y112.594
G0 X109.98 Y111.899
G1 F1800 X109.606 Y111.858 E31.09298
G1 X109.274 Y111.758 E31.11028
G1 X108.936 Y111.575 E31.12946
G1 X108.649 Y111.337 E31.14806
G1 X108.417 Y111.052 E31.16639
G1 X108.242 Y110.726 E31.18485
G1 X108.138 Y110.378 E31.20297
G1 X108.101 Y109.98 E31.22292
G1 X108.142 Y109.606 E31.24169
G1 X108.242 Y109.274 E31.25899
G1 X108.425 Y108.936 E31.27816
G1 X108.663 Y108.649 E31.29676
G1 X108.955 Y108.412 E31.31552
G1 X109.264 Y108.246 E31.33302
G1 X109.622 Y108.138 E31.35168
G1 X110.02 Y108.101 E31.37162
G1 X110.394 Y108.142 E31.39039
G1 X110.736 Y108.246 E31.40823
G1 X111.064 Y108.425 E31.42687
G1 X111.351 Y108.663 E31.44547
G1 X111.579 Y108.942 E31.46345
G1 X111.758 Y109.274 E31.48226
G1 X111.864 Y109.629 E31.50075
G1 X111.9 Y110 E31.51934
G1 X111.864 Y110.371 E31.53794
G1 X111.758 Y110.726 E31.55642
G1 X111.575 Y111.064 E31.5756
G1 X111.337 Y111.351 E31.5942
G1 X111.045 Y111.588 E31.61296
G1 X110.726 Y111.758 E31.631
G1 X110.378 Y111.862 E31.64912
G1 X109.98 Y111.899 E31.66906
G0 F3600 X109.782 Y111.878
G0 X109.711 Y112.575
G0 X90.042 Y133.027
G0 X88.655 Y133.695
G0 X88.52 Y133.009
G1 F1800 X87.932 Y132.892 E31.69897
G1 X87.445 Y132.565 E31.72824
G1 X87.122 Y132.082 E31.75722
G1 X87.005 Y131.495 E31.78709
G1 X87.121 Y130.918 E31.81645
G1 X87.442 Y130.444 E31.84501
G1 X87.939 Y130.104 E31.87505
G1 X88.513 Y129.991 E31.90424
G1 X89.093 Y130.106 E31.93374
G1 X89.571 Y130.429 E31.96252
G1 X89.909 Y130.922 E31.99234
G1 X90.024 Y131.5 E32.02174
G1 X89.91 Y132.075 E32.05099
G1 X89.57 Y132.572 E32.08103
G1 X89.079 Y132.896 E32.11038
G1 X88.52 Y133.009 E32.13883
G0 F3600 X88.324 Y132.97
G0 X88.187 Y133.658
G0 X131.627 Y133.695
G0 X131.492 Y133.009
G1 F1800 X130.92 Y132.896 E32.16792
G1 X130.43 Y132.572 E32.19723
G1 X130.09 Y132.075 E32.22727
G1 X129.977 Y131.501 E32.25646
G1 X130.091 Y130.924 E32.2858
G1 X130.415 Y130.443 E32.31473
G1 X130.909 Y130.105 E32.3446
G1 X131.486 Y129.99 E32.37395
G1 X132.061 Y130.104 E32.40319
G1 X132.558 Y130.444 E32.43324
G1 X132.879 Y130.918 E32.4618
G1 X132.992 Y131.5 E32.49137
G1 X132.878 Y132.082 E32.52096
G1 X132.551 Y132.569 E32.55023
G1 X132.068 Y132.892 E32.57922
G1 X131.492 Y133.009 E32.60854
G0 F3600 X131.296 Y132.971
G0 X131.16 Y133.658
G0 X143.03 Y143.03
G0 X143.3 Y143.3
G1 F1800 X143.3 Y76.7 E35.93123
G1 X76.7 Y76.7 E39.25392
G1 X76.7 Y143.3 E42.5766
G1 X143.3 Y143.3 E45.89929
G0 F3600 X143.3 Y143.1
G0 X142.63 Y142.63
G0 X129.958 Y133.027
G0 X108.201 Y111.799
G0 X88.377 Y90.695
G0 X88.513 Y90.009
G1 F1800 X87.939 Y89.896 E45.92848
G1 X87.442 Y89.556 E45.95852
G1 X87.122 Y89.082 E45.98705
G1 X87.005 Y88.495 E46.01691
G1 X87.121 Y87.918 E46.04628
G1 X87.45 Y87.431 E46.0756
G1 X87.932 Y87.108 E46.10454
G1 X88.508 Y86.991 E46.13387
G1 X89.08 Y87.104 E46.16296
G1 X89.57 Y87.428 E46.19226
G1 X89.91 Y87.925 E46.22231
G1 X90.023 Y88.499 E46.25149
G1 X89.909 Y89.076 E46.28084
G1 X89.585 Y89.557 E46.30977
G1 X89.09 Y89.896 E46.3397
G1 X88.513 Y90.009 E46.36904
G0 F3600 X88.317 Y89.971
G0 X88.181 Y90.656
G0 X131.466 Y90.8
;TYPE:SKIN
G1 F1800 X132.355 Y90.629 E46.4142
G1 X133.116 Y90.128 E46.45966
G1 X133.603 Y89.383 E46.50406
G1 X133.758 Y88.67 E46.54046
G1 X133.756 Y88.323 E46.55778
G1 X133.603 Y87.617 E46.59382
G1 X133.111 Y86.87 E46.63844
G1 X132.369 Y86.383 E46.68272
G1 X131.567 Y86.215 E46.7236
G1 X131.315 Y86.228 E46.73619
G1 X130.577 Y86.389 E46.77388
G1 X129.869 Y86.874 E46.81669
G1 X129.359 Y87.623 E46.8619
G1 X129.206 Y88.396 E46.90121
G1 X129.209 Y88.639 E46.91334
G1 X129.356 Y89.383 E46.95117
G1 X129.788 Y90.024 E46.98974
G1 X129.965 Y90.197 E47.00208
G1 X130.616 Y90.627 E47.04101
G1 X131.466 Y90.8 E47.08428
G0 F3600 X142.52 Y142.52
G1 F1800 X77.48 Y142.52 E50.32914
G1 X77.481 Y77.481 E53.57395
G1 X142.52 Y77.48 E56.81876
G1 X142.52 Y142.52 E60.06362
G0 F3600 X132.391 Y133.612
G1 F1800 X133.108 Y133.121 E60.10697
G1 X133.598 Y132.405 E60.15026
G1 X133.758 Y131.67 E60.18779
G1 X133.756 Y131.323 E60.2051
G1 X133.597 Y130.591 E60.24247
G1 X133.095 Y129.855 E60.28692
G1 X132.36 Y129.372 E60.3308
G1 X131.59 Y129.22 E60.36995
G1 X131.347 Y129.223 E60.38208
G1 X130.615 Y129.37 E60.41933
G1 X129.976 Y129.791 E60.4575
G1 X129.781 Y129.987 E60.4713
G1 X129.361 Y130.609 E60.50874
G1 X129.187 Y131.48 E60.55305
G1 X129.358 Y132.372 E60.59837
G1 X129.869 Y133.136 E60.64422
G1 X130.604 Y133.618 E60.68807
G1 X131.406 Y133.785 E60.72894
G1 X131.657 Y133.772 E60.74148
G1 X132.391 Y133.612 E60.77896
G0 F3600 X89.423 Y133.611
G1 F1800 X90.131 Y133.126 E60.82178
G1 X90.642 Y132.377 E60.86701
G1 X90.794 Y131.604 E60.90632
G1 X90.791 Y131.361 E60.91844
G1 X90.643 Y130.618 E60.95624
G1 X90.207 Y129.97 E60.9952
G1 X90.045 Y129.808 E61.00663
G1 X89.393 Y129.373 E61.04574
G1 X88.535 Y129.2 E61.0894
G1 X87.645 Y129.371 E61.13462
G1 X86.878 Y129.877 E61.18046
G1 X86.38 Y130.641 E61.22596
G1 X86.216 Y131.502 E61.26969
G1 X86.379 Y132.358 E61.31316
G1 X86.89 Y133.131 E61.35939
G1 X87.631 Y133.617 E61.4036
G1 X88.433 Y133.785 E61.44448
G1 X88.685 Y133.772 E61.45707
G1 X89.423 Y133.611 E61.49476
G0 F3600 X109.942 Y112.679
G1 F1800 X110.489 Y112.633 E61.52214
G1 X111.026 Y112.479 E61.55001
G1 X111.455 Y112.253 E61.5742
G1 X111.865 Y111.924 E61.60043
G1 X112.199 Y111.533 E61.62609
G1 X112.477 Y111.029 E61.6548
G1 X112.632 Y110.511 E61.68178
G1 X112.678 Y110.048 E61.70499
G1 X112.632 Y109.49 E61.73292
G1 X112.482 Y108.982 E61.75935
G1 X112.229 Y108.51 E61.78607
G1 X111.926 Y108.135 E61.81012
G1 X111.519 Y107.792 E61.83667
G1 X111.058 Y107.535 E61.86301
G1 X110.554 Y107.379 E61.88933
G1 X110.058 Y107.321 E61.91424
G1 X109.513 Y107.366 E61.94152
G1 X108.941 Y107.535 E61.97128
G1 X108.549 Y107.744 E61.99344
G1 X108.135 Y108.076 E62.01992
G1 X107.801 Y108.467 E62.04557
G1 X107.523 Y108.969 E62.0742
G1 X107.379 Y109.444 E62.09897
G1 X107.321 Y109.944 E62.12408
G1 X107.367 Y110.489 E62.15137
G1 X107.521 Y111.025 E62.17919
G1 X107.739 Y111.441 E62.20262
G1 X108.053 Y111.84 E62.22795
G1 X108.489 Y112.214 E62.25661
G1 X108.982 Y112.482 E62.28461
G1 X109.445 Y112.621 E62.30872
G1 X109.942 Y112.679 E62.33369
G0 F3600 X109.026 Y112.35
G0 X89.388 Y90.628
G1 F1800 X90.024 Y90.209 E62.37168
G1 X90.219 Y90.013 E62.38548
G1 X90.641 Y89.387 E62.42314
G1 X90.813 Y88.52 E62.46724
G1 X90.641 Y87.623 E62.51281
G1 X90.116 Y86.854 E62.55926
G1 X89.396 Y86.382 E62.60221
G1 X88.594 Y86.215 E62.64308
G1 X88.343 Y86.228 E62.65562
G1 X87.609 Y86.388 E62.6931
G1 X86.892 Y86.879 E62.73646
G1 X86.459 Y87.503 E62.77435
G1 X86.359 Y87.743 E62.78732
G1 X86.216 Y88.501 E62.8258
G1 X86.359 Y89.257 E62.86419
G1 X86.459 Y89.498 E62.87721
G1 X86.91 Y90.148 E62.91668
G1 X87.64 Y90.628 E62.96026
G1 X88.41 Y90.78 E62.99942
G1 X88.652 Y90.777 E63.0115
G1 X89.388 Y90.628 E63.04896
G0 F3600 X77.679 Y142.168
G1 F1800 X77.831 Y142.319 E63.05965
G0 F3600 X78.396 Y142.319
G1 F1800 X77.679 Y141.602 E63.11024
G0 F3600 X77.679 Y141.036
G1 F1800 X78.962 Y142.319 E63.20076
G0 F3600 X79.528 Y142.319
G1 F1800 X77.679 Y140.471 E63.33118
G0 F3600 X77.679 Y139.905
G1 F1800 X80.093 Y142.319 E63.5015
G0 F3600 X80.659 Y142.319
G1 F1800 X77.679 Y139.339 E63.71176
G0 F3600 X77.679 Y138.773
G1 F1800 X81.225 Y142.319 E63.96195
G0 F3600 X81.791 Y142.319
G1 F1800 X77.679 Y138.208 E64.25204
G0 F3600 X77.679 Y137.642
G1 F1800 X82.356 Y142.319 E64.58202
G0 F3600 X82.922 Y142.319
G1 F1800 X77.679 Y137.076 E64.95194
G0 F3600 X77.679 Y136.511
G1 F1800 X83.488 Y142.319 E65.36177
G0 F3600 X84.053 Y142.319
G1 F1800 X77.679 Y135.945 E65.81149
G0 F3600 X77.679 Y135.379
G1 F1800 X84.619 Y142.319 E66.30114
G0 F3600 X85.185 Y142.319
G1 F1800 X77.679 Y134.814 E66.83069
G0 F3600 X77.679 Y134.248
G1 F1800 X85.75 Y142.319 E67.40015
G0 F3600 X86.316 Y142.319
G1 F1800 X77.679 Y133.682 E68.00953
G0 F3600 X77.679 Y133.117
G1 F1800 X86.882 Y142.319 E68.65882
G0 F3600 X87.447 Y142.319
G1 F1800 X77.679 Y132.551 E69.348
G0 F3600 X77.679 Y131.985
G1 F1800 X88.013 Y142.319 E70.07712
G0 F3600 X88.579 Y142.319
G1 F1800 X77.679 Y131.42 E70.84614
G0 F3600 X77.679 Y130.854
G1 F1800 X89.144 Y142.319 E71.65506
G0 F3600 X89.71 Y142.319
G1 F1800 X77.679 Y130.288 E72.50391
G0 F3600 X77.679 Y129.722
G1 F1800 X90.276 Y142.319 E73.3927
G0 F3600 X90.842 Y142.319
G1 F1800 X77.679 Y129.157 E74.32138
G0 F3600 X77.679 Y128.591
G1 F1800 X91.407 Y142.319 E75.28997
G0 F3600 X91.973 Y142.319
G1 F1800 X77.679 Y128.025 E76.29849
G0 F3600 X77.679 Y127.46
G1 F1800 X92.539 Y142.319 E77.34691
G0 F3600 X93.104 Y142.319
G1 F1800 X77.679 Y126.894 E78.43522
G0 F3600 X77.679 Y126.328
G1 F1800 X93.67 Y142.319 E79.56347
G0 F3600 X94.236 Y142.319
G1 F1800 X77.679 Y125.763 E80.73162
G0 F3600 X77.679 Y125.197
G1 F1800 X94.801 Y142.319 E81.93967
G0 F3600 X95.367 Y142.319
G1 F1800 X77.679 Y124.631 E83.18766
G0 F3600 X77.679 Y124.066
G1 F1800 X86.455 Y132.841 E83.80682
G1 X86.525 Y132.911
G0 F3600 X86.088 Y131.908
G1 F1800 X77.679 Y123.5 E84.40008
G0 F3600 X77.679 Y122.934
G1 F1800 X86.049 Y131.304 E84.99063
G0 F3600 X86.138 Y130.827
G1 F1800 X77.679 Y122.369 E85.58742
G0 F3600 X77.679 Y121.803
G1 F1800 X86.287 Y130.41 E86.19473
G0 F3600 X86.512 Y130.07
G1 F1800 X77.679 Y121.237 E86.81795
G0 F3600 X77.679 Y120.672
G1 F1800 X86.737 Y129.73 E87.45704
G0 F3600 X87.078 Y129.504
G1 F1800 X77.679 Y120.106 E88.12015
G0 F3600 X77.679 Y119.54
G1 F1800 X87.417 Y129.278 E88.80722
G0 F3600 X87.834 Y129.129
G1 F1800 X77.679 Y118.974 E89.52371
G0 F3600 X77.679 Y118.409
G1 F1800 X88.311 Y129.04 E90.27382
G0 F3600 X88.904 Y129.068
G1 F1800 X77.679 Y117.843 E91.0658
G0 F3600 X77.679 Y117.277
G1 F1800 X89.82 Y129.418 E91.92242
G1 X89.89 Y129.488
G0 F3600 X90.598 Y130.196
G1 F1800 X102.721 Y142.319 E92.77776
G0 F3600 X102.155 Y142.319
G1 F1800 X90.943 Y131.107 E93.56883
G0 F3600 X90.975 Y131.705
G1 F1800 X101.59 Y142.319 E94.31774
G0 F3600 X101.024 Y142.319
G1 F1800 X90.882 Y132.177 E95.03331
G0 F3600 X90.733 Y132.594
G1 F1800 X100.458 Y142.319 E95.71946
G0 F3600 X99.892 Y142.319
